X:270
T:Whistler at the Wake
R:jig
C:Vincent Broderick (1920-2008)
Z:id:hn-jig-270
M:6/8
K:D
FAA AFA | Bdd dfg | fed BdB | AFE EDE |
FAA AFA | Bdd dfg | fed BdB | AFD D3 :|
|: fed BdB | AFE EDE | FAA ABF | ABF AFA |
fed BdB | AFE Efg | fed BdB | AFD D3 :|
P:variations
|: F2A AFA | Bcd efg | fed ~B3 | AFE ~E3 |
F2A AFA | Bcd efg | fed ~B3 |1 AFD D2E :|2 AFD D2e || 
|: fed ~B3 | AFE ~E3 | DEF ABF | ABF ~A3 |
fed ~B3 | AFE E2g | fed BdB |1 AFD D2e :|2 AFD D2E ||
P:more variations
|: F2A AFA | Bdd efg | fed BdB | AFE EDE |
~F3 AFA | B2d efg | fed BdB |1 AFA DAG :|2 AFA D2e ||
|: fed BdB | AFE EDF | A3 AFB | AFB AFA |
fed ~B3 | AFE EFA | fed ~B3 |1 AFA D2e :|2 AFA DAG ||

